src/images/link_edm.svg

<svg width="102" height="102" fill="none" xmlns="http://www.w3.org/2000/svg"><path d="M68.2 68.5H26.4c-1.9 0-3.4-1.5-3.4-3.4V35.9c0-1.9 1.5-3.4 3.4-3.4h41.8c1.9 0 3.4 1.5 3.4 3.4v29.3c0 1.8-1.5 3.3-3.4 3.3z" fill="#fff" stroke="#000" stroke-miterlimit="10" stroke-linecap="round" stroke-linejoin="round"/><path d="m23 35.9 21.8 17.5c1.4 1.1 3.3 1.1 4.7 0l22.1-17.5" fill="#fff"/><path d="m23 35.9 21.8 17.5c1.4 1.1 3.3 1.1 4.7 0l22.1-17.5M39.3 49.1 23 64.3M71.5 64.2 56.1 48.3M74.6 45.5H90M74.6 50.1H86M74.6 54.7h7.9" stroke="#000" stroke-miterlimit="10" stroke-linecap="round" stroke-linejoin="round"/><path d="M41.4 57.3v1.5h-4.2v1.7H41v1.3h-3.8v1.9h4.2v1.5h-5.9v-7.8h5.9v-.1zM46.1 57.3c.5 0 1 .1 1.4.2.4.2.8.4 1.1.7.3.3.6.7.8 1.2.2.5.3 1 .3 1.7 0 .6-.1 1.1-.2 1.6s-.5 1-.8 1.3c-.3.3-.7.6-1.1.8-.4.2-1 .3-1.6.3h-3.4v-7.9h3.5v.1zm-.2 6.4c.2 0 .5 0 .7-.1.2-.1.4-.2.6-.4.2-.2.3-.4.4-.7.1-.3.2-.7.2-1.1 0-.4 0-.8-.1-1.1-.1-.3-.2-.6-.4-.8-.2-.2-.4-.4-.7-.5-.3-.1-.7-.2-1.1-.2h-1.2v5l1.6-.1zM53.2 57.3l1.8 5.4 1.7-5.4h2.4v7.9h-1.6v-5.6l-1.9 5.6h-1.3l-1.9-5.5v5.5h-1.6v-7.9h2.4z" fill="#000"/></svg>

<svg width="102" height="102" viewBox="0 0 102 102" fill="none" xmlns="http://www.w3.org/2000/svg">
<path d="M68.2 68.5H26.4C24.5 68.5 23 67 23 65.1V35.9C23 34 24.5 32.5 26.4 32.5H68.2C70.1 32.5 71.6 34 71.6 35.9V65.2C71.6 67 70.1 68.5 68.2 68.5Z" fill="white" stroke="black" stroke-miterlimit="10" stroke-linecap="round" stroke-linejoin="round"/>
<path d="M23 35.9L44.8 53.4C46.2 54.5 48.1 54.5 49.5 53.4L71.6 35.9" fill="white"/>
<path d="M23 35.9L44.8 53.4C46.2 54.5 48.1 54.5 49.5 53.4L71.6 35.9" stroke="black" stroke-miterlimit="10" stroke-linecap="round" stroke-linejoin="round"/>
<path d="M39.3 49.1L23 64.3" stroke="black" stroke-miterlimit="10" stroke-linecap="round" stroke-linejoin="round"/>
<path d="M71.5 64.2L56.1 48.3" stroke="black" stroke-miterlimit="10" stroke-linecap="round" stroke-linejoin="round"/>
<path d="M74.6 45.5H90" stroke="black" stroke-miterlimit="10" stroke-linecap="round" stroke-linejoin="round"/>
<path d="M74.6 50.1H86" stroke="black" stroke-miterlimit="10" stroke-linecap="round" stroke-linejoin="round"/>
<path d="M74.6 54.7H82.5" stroke="black" stroke-miterlimit="10" stroke-linecap="round" stroke-linejoin="round"/>
<path d="M41.4 57.3V58.8H37.2V60.5H41V61.8H37.2V63.7H41.4V65.2H35.5V57.4H41.4V57.3Z" fill="black"/>
<path d="M46.1 57.3C46.6 57.3 47.1 57.4 47.5 57.5C47.9 57.7 48.3 57.9 48.6 58.2C48.9 58.5 49.2 58.9 49.4 59.4C49.6 59.9 49.7 60.4 49.7 61.1C49.7 61.7 49.6 62.2 49.5 62.7C49.4 63.2 49 63.7 48.7 64C48.4 64.3 48 64.6 47.6 64.8C47.2 65 46.6 65.1 46 65.1H42.6V57.2H46.1V57.3ZM45.9 63.7C46.1 63.7 46.4 63.7 46.6 63.6C46.8 63.5 47 63.4 47.2 63.2C47.4 63 47.5 62.8 47.6 62.5C47.7 62.2 47.8 61.8 47.8 61.4C47.8 61 47.8 60.6 47.7 60.3C47.6 60 47.5 59.7 47.3 59.5C47.1 59.3 46.9 59.1 46.6 59C46.3 58.9 45.9 58.8 45.5 58.8H44.3V63.8L45.9 63.7Z" fill="black"/>
<path d="M53.2 57.3L55 62.7L56.7 57.3H59.1V65.2H57.5V59.6L55.6 65.2H54.3L52.4 59.7V65.2H50.8V57.3H53.2V57.3Z" fill="black"/>
</svg>
